svg/u2708.svg

<svg viewBox="0 0 128 128" xmlns="http://www.w3.org/2000/svg">
  <path d="M37.08,80.79c0,0-27.47-5.87-27.94-5.78c-0.47,0.09-5.97,5.59-5.78,6.44 C3.55,82.31,27.61,95,27.61,95l6.91-7.29L37.08,80.79z" fill="#006CA8"/>
  <path d="M33.29,100.21c0,0,13.35,23.11,13.92,23.11s6.72-4.74,6.72-5.21c0-0.47-5.68-28.03-5.68-28.03 l-9.76,1.14L33.29,100.21z" fill="#006CA8"/>
  <path d="M22.79,25.78c0,0-1.92,2.17-2.33,2.94s-0.48,2.09,0.4,2.56c0.88,0.47,1.95,0.15,2.48-0.44 c0.53-0.59,3.14-3.8,3.14-3.8S23.02,25.6,22.79,25.78z" fill="#9A9A9A"/>
  <path d="M36.81,33.63c0,0-1.55,1.84-2.18,2.68c-0.61,0.81-0.6,2.08,0.25,2.68c1.22,0.86,2.43-0.1,3.09-0.81 c0.61-0.66,2.33-2.68,2.33-2.68L36.81,33.63z" fill="#9A9A9A"/>
  <path d="M50.08,40.77c0,0-2.03,2.03-2.63,2.84c-0.67,0.89-0.82,2.19,0.1,2.89c1.01,0.76,2.13,0.41,3.04-0.41 c0.91-0.81,2.94-3.04,2.94-3.04L50.08,40.77z" fill="#9A9A9A"/>
  <path d="M85.11,75.05c0,0-2.38,1.65-2.97,2.29c-0.58,0.64-0.97,1.92-0.22,2.59c0.74,0.67,1.86,0.61,2.52,0.17 c0.66-0.44,3.96-2.93,3.96-2.93S85.38,74.94,85.11,75.05z" fill="#9A9A9A"/>
  <path d="M93.13,87.61c0,0-1.97,1.38-2.79,2.03c-0.8,0.63-1.11,1.86-0.44,2.66c0.95,1.14,2.38,0.53,3.19,0.01 c0.76-0.48,2.94-2,2.94-2L93.13,87.61z" fill="#9A9A9A"/>
  <path d="M100.47,100.45c0,0-2.45,1.48-3.24,2.12c-0.86,0.71-1.32,1.93-0.59,2.83c0.8,0.98,1.97,0.9,3.05,0.34 s3.58-2.24,3.58-2.24L100.47,100.45z" fill="#9A9A9A"/>
  <path d="M57.27,23.73c0,0-0.35-2.33,1.54-4.96c1.89-2.63,8.16-8.77,9.13-8.82s3.29,1.18,5.62,3.47 c2.22,2.17,3.25,4.96,3.29,5.62c0.04,0.66-4.34,5-5.48,6.05c-1.14,1.05-4.21,4.47-4.21,4.47L57.27,23.73z" fill="#9A9A9A"/>
  <path d="M60.13,24.08c0,0,7.68-9.39,9.74-7.98c2.08,1.42-6.23,9.48-6.23,9.48L60.13,24.08z" fill="#C8C8C8"/>
  <path d="M58.37,23.48c0,0,4.35-4.41,4.83-5.11c0.48-0.7,0.04-1.75-0.35-2.33c-0.39-0.57-0.99-0.79-0.99-0.79 s-3.07,2.75-4.12,5.16c-0.82,1.87-0.68,2.82-0.68,2.82L58.37,23.48z" fill="#848484"/>
  <path d="M65.86,25.75c0,0,1.65-1.71,2.48-2.39c0.75-0.61,1.86-0.55,2.52-0.16c0.85,0.5,1.05,1.36,1.05,1.36 l-3.06,3.25L65.86,25.75z" fill="#848484"/>
  <path d="M101.96,59.45c0,0,2.51-2.92,3.97-4.38c1.51-1.51,3.97-3.56,4.47-3.52c0.5,0.05,2.71,1.39,4.79,3.52 c2.37,2.42,3.84,5.43,3.88,5.71c0.05,0.27-4.38,4.7-6.35,6.39c-1.41,1.21-10.18,4.79-10.18,4.34 C102.56,71.05,101.96,59.45,101.96,59.45z" fill="#9A9A9A"/>
  <path d="M103.41,65.1c0,0,7.26-7.96,8.92-6.47c1.66,1.49-8.31,10.45-8.31,10.45L103.41,65.1z" fill="#C8C8C8"/>
  <path d="M102.87,63.1c0,0,2.07-2.28,2.65-2.92c0.94-1.03,0.88-2.41,0.6-3.01c-0.36-0.77-1.29-0.95-1.29-0.95 l-3.45,3.67L102.87,63.1z" fill="#848484"/>
  <path d="M105.38,69.71c0,0,4.16-3.75,4.87-4.34c0.71-0.59,1.86-1.01,2.77-0.38c0.68,0.47,0.98,1.04,0.98,1.04 s-3.2,3.48-5.13,4.71c-1.21,0.77-4.07,1.21-4.07,1.21L105.38,69.71z" fill="#848484"/>
  <path d="M11.65,8.92C10.67,9,4.46,16.34,4.24,16.88s0,1.42,1.53,2.18C7.29,19.82,50.24,42.5,50.9,43.04 c0.65,0.55,9.16,10.03,9.16,10.03s21.04-14.5,20.93-14.93c-0.11-0.44-0.76-9.48-0.76-9.48S13.07,8.81,11.65,8.92z" fill="#006CA8"/>
  <path d="M73.03,65.83c0,0,12.86,11.66,13.95,13.08c1.09,1.42,23.33,41.97,23.66,42.62 c0.33,0.65,1.74,1.2,2.51,0.44s6.54-5.78,6.65-6.98c0.11-1.2-21.37-70.42-21.37-70.42l-16.57,6L73.03,65.83z" fill="#006CA8"/>
  <path d="M66.81,43.26c0,0-10.14-9.81-10.9-10.36C55.15,32.36,7.62,12.74,7.62,12.74l-1.95,2.15 c0,0,48.18,20.35,48.95,20.89c0.77,0.54,10.2,10.2,10.2,10.2L66.81,43.26z" fill="#014EAC"/>
  <path d="M82.4,60.45c0,0,11.17,13.72,11.84,14.61s20.26,45.65,20.26,45.65l1.95-1.82 c0,0-19.57-45.67-19.92-46.29c-0.35-0.62-13.36-16.7-13.36-16.7L82.4,60.45z" fill="#014EAC"/>
  <path d="M24.22,98.4c0,0-4.18,5.98-4.18,6.45c0,0.48,2.8,3.54,3.12,3.54s6.4-4.34,6.4-4.34l-0.85-4.34 L24.22,98.4z" fill="#9A9A9A"/>
  <path d="M24.22,98.4c0,0,8.28-13.93,17.15-26.38c9.11-12.79,16.5-20.16,27.86-32.52 c14.25-15.5,23.74-24.28,32.52-30.19c7.28-4.9,17.68-8.22,21.39-4.91c4.07,3.64-0.42,15.12-4.99,21.66 c-10.37,14.84-19.27,21.9-29.48,31.81c-10.07,9.77-18.58,18.25-29.12,26.16c-7.1,5.33-30,20.04-30,20.04L24.22,98.4z" fill="#C8C8C8"/>
  <path d="M103.92,11.05l2.77,2.92c0,0,4.64-4.47,8.11-1.14c3.56,3.41-1.35,8.25-1.35,8.25l2.99,3.34 c0,0,8.11-9.18,1.49-15.15C112.17,4.07,103.92,11.05,103.92,11.05z" fill="#3B5361"/>
  <path d="M47.84,74c-1.29,1.24-16.53,19.28-17.38,20.35c-1.09,1.38-1.59,3.04-0.36,4.06 c1.23,1.01,2.56,0.01,3.77-0.8c1.52-1.01,19.18-16.59,20.35-17.67c1.88-1.74,2.2-4.88,0.22-6.66C52.26,71.32,49.8,72.12,47.84,74z" fill="#9A9A9A"/>
  <path d="M47.29,69.91c-0.87-0.75-1.95-0.25-3.09,0.98c-0.98,1.07-1.43,2.73-0.45,3.4 c0.98,0.67,2.28-0.31,3.09-1.3C47.65,72.01,48.27,70.76,47.29,69.91z" fill="#DFDFDF"/>
  <path d="M50.11,64.09c-0.9,1.03-2.21,2.73-0.98,3.94c1.21,1.19,3.04-0.32,3.84-1.22 c0.79-0.9,9.84-11.52,21.29-22.96c11.18-11.18,18.7-18.25,19.86-19.49c0.98-1.05,0.89-2.72,0.03-3.25 c-1.02-0.63-2.15-0.23-3.55,1.17c-1.4,1.4-10.9,10.09-19.86,19.15S51.23,62.8,50.11,64.09z" fill="#DFDFDF"/>
  <path d="M105.47,41.61c0,0-0.55-3.72-2.86-2.26c-2.48,1.57-0.63,5.83-0.63,5.83s0.93-0.87,1.92-1.91 C104.72,42.42,105.2,41.92,105.47,41.61z" fill="#3B5361"/>
  <path d="M96.6,50.36c0,0-0.39-4.77-3.01-2.81c-2.09,1.57-0.67,6.26-0.67,6.26s1.2-1.09,1.98-1.83 C95.69,51.23,96.6,50.36,96.6,50.36z" fill="#3B5361"/>
  <path d="M88.14,58.38c0,0-0.3-3.96-2.65-2.65c-2.35,1.31-0.78,5.99-0.78,5.99s1.04-0.94,1.74-1.64 S88.14,58.38,88.14,58.38z" fill="#3B5361"/>
  <path d="M78.56,67.64c0,0-0.18-3.94-2.49-2.89c-2.4,1.09-0.96,6.14-0.96,6.14s1.17-1.09,1.82-1.7 C77.59,68.59,78.56,67.64,78.56,67.64z" fill="#3B5361"/>
</svg>

<svg viewBox="0 0 128 128" xmlns="http://www.w3.org/2000/svg">
  <defs/>
  <path d="M37.08,80.79 C37.08,80.79 9.61,74.92 9.14,75.01 C8.67,75.1 3.17,80.6 3.36,81.45 C3.55,82.31 27.61,95 27.61,95 L34.52,87.71 L37.08,80.79 Z" fill="#006CA8"/>
  <path d="M33.29,100.21 C33.29,100.21 46.64,123.32 47.21,123.32 C47.78,123.32 53.93,118.58 53.93,118.11 C53.93,117.64 48.25,90.08 48.25,90.08 L38.49,91.22 L33.29,100.21 Z" fill="#006CA8"/>
  <path d="M22.79,25.78 C22.79,25.78 20.87,27.95 20.46,28.72 C20.05,29.49 19.98,30.81 20.86,31.28 C21.74,31.75 22.81,31.43 23.34,30.84 C23.87,30.25 26.48,27.04 26.48,27.04 C26.48,27.04 23.02,25.6 22.79,25.78 Z" fill="#9A9A9A"/>
  <path d="M36.81,33.63 C36.81,33.63 35.26,35.47 34.63,36.31 C34.02,37.12 34.03,38.39 34.88,38.99 C36.1,39.85 37.31,38.89 37.97,38.18 C38.58,37.52 40.3,35.5 40.3,35.5 L36.81,33.63 Z" fill="#9A9A9A"/>
  <path d="M50.08,40.77 C50.08,40.77 48.05,42.8 47.45,43.61 C46.78,44.5 46.63,45.8 47.55,46.5 C48.56,47.26 49.68,46.91 50.59,46.09 C51.5,45.28 53.53,43.05 53.53,43.05 L50.08,40.77 Z" fill="#9A9A9A"/>
  <path d="M85.11,75.05 C85.11,75.05 82.73,76.7 82.14,77.34 C81.56,77.98 81.17,79.26 81.92,79.93 C82.66,80.6 83.78,80.54 84.44,80.1 C85.1,79.66 88.4,77.17 88.4,77.17 C88.4,77.17 85.38,74.94 85.11,75.05 Z" fill="#9A9A9A"/>
  <path d="M93.13,87.61 C93.13,87.61 91.16,88.99 90.34,89.64 C89.54,90.27 89.23,91.5 89.9,92.3 C90.85,93.44 92.28,92.83 93.09,92.31 C93.85,91.83 96.03,90.31 96.03,90.31 L93.13,87.61 Z" fill="#9A9A9A"/>
  <path d="M100.47,100.45 C100.47,100.45 98.02,101.93 97.23,102.57 C96.37,103.28 95.91,104.5 96.64,105.4 C97.44,106.38 98.61,106.3 99.69,105.74 C100.77,105.18 103.27,103.5 103.27,103.5 L100.47,100.45 Z" fill="#9A9A9A"/>
  <path d="M57.27,23.73 C57.27,23.73 56.92,21.4 58.81,18.77 C60.7,16.14 66.97,10 67.94,9.95 C68.91,9.9 71.23,11.13 73.56,13.42 C75.78,15.59 76.81,18.38 76.85,19.04 C76.89,19.7 72.51,24.04 71.37,25.09 C70.23,26.14 67.16,29.56 67.16,29.56 L57.27,23.73 Z" fill="#9A9A9A"/>
  <path d="M60.13,24.08 C60.13,24.08 67.81,14.69 69.87,16.1 C71.95,17.52 63.64,25.58 63.64,25.58 L60.13,24.08 Z" fill="#C8C8C8"/>
  <path d="M58.37,23.48 C58.37,23.48 62.72,19.07 63.2,18.37 C63.68,17.67 63.24,16.62 62.85,16.04 C62.46,15.47 61.86,15.25 61.86,15.25 C61.86,15.25 58.79,18 57.74,20.41 C56.92,22.28 57.06,23.23 57.06,23.23 L58.37,23.48 Z" fill="#848484"/>
  <path d="M65.86,25.75 C65.86,25.75 67.51,24.04 68.34,23.36 C69.09,22.75 70.2,22.81 70.86,23.2 C71.71,23.7 71.91,24.56 71.91,24.56 L68.85,27.81 L65.86,25.75 Z" fill="#848484"/>
  <path d="M101.96,59.45 C101.96,59.45 104.47,56.53 105.93,55.07 C107.44,53.56 109.9,51.51 110.4,51.55 C110.9,51.6 113.11,52.94 115.19,55.07 C117.56,57.49 119.03,60.5 119.07,60.78 C119.12,61.05 114.69,65.48 112.72,67.17 C111.31,68.38 102.54,71.96 102.54,71.51 C102.56,71.05 101.96,59.45 101.96,59.45 Z" fill="#9A9A9A"/>
  <path d="M103.41,65.1 C103.41,65.1 110.67,57.14 112.33,58.63 C113.99,60.12 104.02,69.08 104.02,69.08 L103.41,65.1 Z" fill="#C8C8C8"/>
  <path d="M102.87,63.1 C102.87,63.1 104.94,60.82 105.52,60.18 C106.46,59.15 106.4,57.77 106.12,57.17 C105.76,56.4 104.83,56.22 104.83,56.22 L101.38,59.89 L102.87,63.1 Z" fill="#848484"/>
  <path d="M105.38,69.71 C105.38,69.71 109.54,65.96 110.25,65.37 C110.96,64.78 112.11,64.36 113.02,64.99 C113.7,65.46 114,66.03 114,66.03 C114,66.03 110.8,69.51 108.87,70.74 C107.66,71.51 104.8,71.95 104.8,71.95 L105.38,69.71 Z" fill="#848484"/>
  <path d="M11.65,8.92 C10.67,9 4.46,16.34 4.24,16.88 C4.02,17.42 4.24,18.3 5.77,19.06 C7.29,19.82 50.24,42.5 50.9,43.04 C51.55,43.59 60.06,53.07 60.06,53.07 C60.06,53.07 81.1,38.57 80.99,38.14 C80.88,37.7 80.23,28.66 80.23,28.66 C80.23,28.66 13.07,8.81 11.65,8.92 Z" fill="#006CA8"/>
  <path d="M73.03,65.83 C73.03,65.83 85.89,77.49 86.98,78.91 C88.07,80.33 110.31,120.88 110.64,121.53 C110.97,122.18 112.38,122.73 113.15,121.97 C113.92,121.21 119.69,116.19 119.8,114.99 C119.91,113.79 98.43,44.57 98.43,44.57 L81.86,50.57 L73.03,65.83 Z" fill="#006CA8"/>
  <path d="M66.81,43.26 C66.81,43.26 56.67,33.45 55.91,32.9 C55.15,32.36 7.62,12.74 7.62,12.74 L5.67,14.89 C5.67,14.89 53.85,35.24 54.62,35.78 C55.39,36.32 64.82,45.98 64.82,45.98 L66.81,43.26 Z" fill="#014EAC"/>
  <path d="M82.4,60.45 C82.4,60.45 93.57,74.17 94.24,75.06 C94.91,75.95 114.5,120.71 114.5,120.71 L116.45,118.89 C116.45,118.89 96.88,73.22 96.53,72.6 C96.18,71.98 83.17,55.9 83.17,55.9 L82.4,60.45 Z" fill="#014EAC"/>
  <path d="M24.22,98.4 C24.22,98.4 20.04,104.38 20.04,104.85 C20.04,105.33 22.84,108.39 23.16,108.39 C23.48,108.39 29.56,104.05 29.56,104.05 L28.71,99.71 L24.22,98.4 Z" fill="#9A9A9A"/>
  <path d="M24.22,98.4 C24.22,98.4 32.5,84.47 41.37,72.02 C50.48,59.23 57.87,51.86 69.23,39.5 C83.48,24 92.97,15.22 101.75,9.31 C109.03,4.41 119.43,1.09 123.14,4.4 C127.21,8.04 122.72,19.52 118.15,26.06 C107.78,40.9 98.88,47.96 88.67,57.87 C78.6,67.64 70.09,76.12 59.55,84.03 C52.45,89.36 29.55,104.07 29.55,104.07 L24.22,98.4 Z" fill="#C8C8C8"/>
  <path d="M103.92,11.05 L106.69,13.97 C106.69,13.97 111.33,9.5 114.8,12.83 C118.36,16.24 113.45,21.08 113.45,21.08 L116.44,24.42 C116.44,24.42 124.55,15.24 117.93,9.27 C112.17,4.07 103.92,11.05 103.92,11.05 Z" fill="#3B5361"/>
  <path d="M47.84,74 C46.55,75.24 31.31,93.28 30.46,94.35 C29.37,95.73 28.87,97.39 30.1,98.41 C31.33,99.42 32.66,98.42 33.87,97.61 C35.39,96.6 53.05,81.02 54.22,79.94 C56.1,78.2 56.42,75.06 54.44,73.28 C52.26,71.32 49.8,72.12 47.84,74 Z" fill="#9A9A9A"/>
  <path d="M47.29,69.91 C46.42,69.16 45.34,69.66 44.2,70.89 C43.22,71.96 42.77,73.62 43.75,74.29 C44.73,74.96 46.03,73.98 46.84,72.99 C47.65,72.01 48.27,70.76 47.29,69.91 Z" fill="#DFDFDF"/>
  <path d="M50.11,64.09 C49.21,65.12 47.9,66.82 49.13,68.03 C50.34,69.22 52.17,67.71 52.97,66.81 C53.76,65.91 62.81,55.29 74.26,43.85 C85.44,32.67 92.96,25.6 94.12,24.36 C95.1,23.31 95.01,21.64 94.15,21.11 C93.13,20.48 92,20.88 90.6,22.28 C89.2,23.68 79.7,32.37 70.74,41.43 C61.78,50.49 51.23,62.8 50.11,64.09 Z" fill="#DFDFDF"/>
  <path d="M105.47,41.61 C105.47,41.61 104.92,37.89 102.61,39.35 C100.13,40.92 101.98,45.18 101.98,45.18 C101.98,45.18 102.91,44.31 103.9,43.27 C104.72,42.42 105.2,41.92 105.47,41.61 Z" fill="#3B5361"/>
  <path d="M96.6,50.36 C96.6,50.36 96.21,45.59 93.59,47.55 C91.5,49.12 92.92,53.81 92.92,53.81 C92.92,53.81 94.12,52.72 94.9,51.98 C95.69,51.23 96.6,50.36 96.6,50.36 Z" fill="#3B5361"/>
  <path d="M88.14,58.38 C88.14,58.38 87.84,54.42 85.49,55.73 C83.14,57.04 84.71,61.72 84.71,61.72 C84.71,61.72 85.75,60.78 86.45,60.08 C87.15,59.38 88.14,58.38 88.14,58.38 Z" fill="#3B5361"/>
  <path d="M78.56,67.64 C78.56,67.64 78.38,63.7 76.07,64.75 C73.67,65.84 75.11,70.89 75.11,70.89 C75.11,70.89 76.28,69.8 76.93,69.19 C77.59,68.59 78.56,67.64 78.56,67.64 Z" fill="#3B5361"/>
</svg>
